src/img/logo.svg

<svg width="42" height="47" viewBox="0 0 42 47" fill="none" xmlns="http://www.w3.org/2000/svg">
<path d="M42 27.483V46.5C42 46.7666 41.7921 46.9828 41.5358 46.9828H16.9642C16.7079 46.9828 16.5 46.7666 16.5 46.5V41.4878H20.5714C21.0843 41.4878 21.5 41.0554 21.5 40.522V37H25.5714C26.0843 37 26.5 36.5676 26.5 36.0342V31.8292L30.5714 31.8292C31.0843 31.8292 31.5 31.3968 31.5 30.8634V27L41.5358 27C41.7921 27 42 27.2162 42 27.483Z" fill="#F5D581"/>
<line x1="20.5185" y1="0.870361" x2="20.5185" y2="6.09258" stroke="#F5D581"/>
<path d="M17.5657 6.09259H24.2121L26.1111 12.1852H15.6667L17.5657 6.09259Z" stroke="#F5D581" stroke-linejoin="round"/>
<path d="M4.5 41.5H9.5V44.5001C9.5 45.0523 9.05231 45.5 8.50011 45.5H5.49989C4.94769 45.5 4.5 45.0523 4.5 44.5001V41.5Z" stroke="#F5D581"/>
<line x1="36.5" y1="28.7222" x2="36.5" y2="19.1482" stroke="#F5D581"/>
<path d="M32 27.5L32 19.5" stroke="#F5D581"/>
<path d="M27 33.9445L27 20" stroke="#F5D581"/>
<path d="M22 38.2963L22 24.5" stroke="#F5D581"/>
<path d="M17 42.2963L17 29" stroke="#F5D581"/>
<path d="M3.49989 41H10.5001C10.7762 41 11 41.1119 11 41.2501V41.7501C11 41.8881 10.7762 42 10.5001 42H3.49989C3.22385 42 3 41.8881 3 41.7501V41.2501C3 41.1119 3.22385 41 3.49989 41Z" fill="#F5D581"/>
<path d="M5.6851 40.0686C5.75621 40.1488 5.81991 40.2334 5.87579 40.3215L5.90078 40.3644C6.02925 40.585 6.12744 40.817 6.19435 41.0553C5.7883 40.8829 5.42418 40.6403 5.12366 40.3415C4.8816 40.0376 4.70734 39.6998 4.60553 39.3461C5.01561 39.5201 5.3829 39.7658 5.6851 40.0686Z" stroke="#F5D581"/>
<path d="M6.43003 39.3645C6.49648 38.8729 6.6526 38.4054 6.88508 37.9876C7.04342 38.4504 7.11672 38.9464 7.09687 39.447C7.09004 39.5234 7.07926 39.5993 7.06458 39.6741C6.9189 39.9769 6.80605 40.2951 6.72734 40.6225C6.65475 40.3205 6.55309 40.0264 6.42341 39.7449C6.41731 39.618 6.4195 39.4909 6.43003 39.3645Z" stroke="#F5D581"/>
<path d="M7.87322 40.0996C8.28611 39.7547 8.8027 39.4793 9.38544 39.2974C9.26743 39.6516 9.0584 39.9954 8.75796 40.3092C8.34669 40.6505 7.83356 40.9232 7.25529 41.1038C7.337 40.8529 7.46197 40.6066 7.63052 40.3712L7.65202 40.3411C7.71746 40.258 7.79124 40.1772 7.87322 40.0996Z" stroke="#F5D581"/>
<path d="M12 34.5C12 34.7761 12.2239 35 12.5 35C12.7761 35 13 34.7761 13 34.5H12ZM13.4938 32.1061L13.8282 32.4779L13.4938 32.1061ZM26.8463 20.0963L27.1807 20.4681L26.8463 20.0963ZM41.5 19.0833H28.1838V20.0833H41.5V19.0833ZM26.5119 19.7246L13.1594 31.7344L13.8282 32.4779L27.1807 20.4681L26.5119 19.7246ZM12 34.3366V34.5H13V34.3366H12ZM13.1594 31.7344C12.4214 32.3982 12 33.3441 12 34.3366H13C13 33.6277 13.301 32.952 13.8282 32.4779L13.1594 31.7344ZM28.1838 19.0833C27.5664 19.0833 26.9709 19.3118 26.5119 19.7246L27.1807 20.4681C27.4561 20.2204 27.8134 20.0833 28.1838 20.0833V19.0833Z" fill="#F5D581"/>
<path d="M0.5 21C0.5 9.67816 9.67816 0.5 21 0.5C32.3218 0.5 41.5 9.67816 41.5 21V46.5H0.5V21Z" stroke="#F5D581"/>
</svg>

<svg xmlns="http://www.w3.org/2000/svg" width="42" height="47" fill="none" viewBox="0 0 42 47">
  <path fill="#F5D581"
        d="M42 27.48V46.5c0 .27-.2.48-.46.48H16.96a.47.47 0 0 1-.46-.48v-5.01h4.07c.51 0 .93-.43.93-.97V37h4.07c.51 0 .93-.43.93-.97v-4.2h4.07c.51 0 .93-.43.93-.97V27h10.04c.25 0 .46.22.46.48Z"/>
  <path stroke="#F5D581" d="M20.52.87v5.22"/>
  <path stroke="#F5D581" stroke-linejoin="round" d="M17.57 6.1h6.64l1.9 6.09H15.67l1.9-6.1Z"/>
  <path stroke="#F5D581"
        d="M4.5 41.5h5v3a1 1 0 0 1-1 1h-3a1 1 0 0 1-1-1v-3ZM36.5 28.72v-9.57M32 27.5v-8M27 33.94V20M22 38.3V24.5M17 42.3V29"/>
  <path fill="#F5D581"
        d="M3.5 41h7c.28 0 .5.11.5.25v.5c0 .14-.22.25-.5.25h-7c-.28 0-.5-.11-.5-.25v-.5c0-.14.22-.25.5-.25Z"/>
  <path stroke="#F5D581"
        d="m5.69 40.07.19.25.02.04c.13.23.23.46.3.7a3.4 3.4 0 0 1-1.08-.72c-.24-.3-.41-.64-.51-1 .4.18.77.43 1.08.73ZM6.43 39.36c.07-.49.22-.95.46-1.37a4.02 4.02 0 0 1 .17 1.68c-.14.3-.25.63-.33.95-.08-.3-.18-.6-.3-.88v-.38ZM7.87 40.1a4.4 4.4 0 0 1 1.52-.8c-.12.35-.33.7-.63 1-.41.35-.93.62-1.5.8.08-.25.2-.5.37-.73l.02-.03.22-.24Z"/>
  <path fill="#F5D581"
        d="M12 34.5a.5.5 0 0 0 1 0h-1Zm1.5-2.4.33.38-.34-.37Zm13.35-12 .33.37-.33-.37Zm14.65-1.02H28.18v1H41.5v-1Zm-14.99.64L13.16 31.73l.67.75 13.35-12.01-.67-.75ZM12 34.34v.16h1v-.16h-1Zm1.16-2.6a3.5 3.5 0 0 0-1.16 2.6h1c0-.71.3-1.39.83-1.86l-.67-.75Zm15.02-12.66a2.5 2.5 0 0 0-1.67.64l.67.75a1.5 1.5 0 0 1 1-.39v-1Z"/>
  <path stroke="#F5D581" d="M.5 21a20.5 20.5 0 1 1 41 0v25.5H.5V21Z"/>
</svg>
